X:5699
T:Gan ainm
R:reel
S:
H:
N:
D:
Z:Adrian Scahill
M:2/2
L:1/8
K:G
BEED E2GE|DB,B,2 DEGA|BEED E2DE|1 GABG A2GA:|2 GABG A2GE||\
G2GF GBdB|cBAB cdec|ABBA GABd|dBGB AGEF|\
G2GF GBdB|cBAB cdef|gedB cgge|dBGB A2GA||
